X:48
T:Aiken Drum
Z:Jack Campin, http://www.campin.me.uk/
F:Jack Campin's Nine-Note Tunebook
% last edit 03-02-2013
M:C|
L:1/8
Q:1/2=110
K:F % usually in D
FG|A2A2 BAGF|D4 F3D|C2C2 D2F2|A2G2 G2
FG|A2A2 BAGF|D4 F3D|C2C2 D2E2|F6   :|
FG|A2A2 A2GF|B4 d3B|A2c2 A2F2|A2G2 G2
FG|A2A2 BAGF|D4 F3D|C2C2 D2E2|F6   :|

